!!!OTL: "Nimm dich in Acht" ICH WEISS EIN MAEDLEIN HUEBSCH UND FEIN
!!!ARE: Europa, Mitteleuropa, Deutschland, Nord - Deutschland
!!!SCT: Z1257
!!!YEM: Copyright 1995, estate of Helmut Schaffrath.
**kern
*ICvox
*Ivox
*M6/8
*k[]
*a:
{8e
=1
4a
8b
4ccn
8a
=2
4ee
8ee
4.ee
=3
4.ee
8b
8b}
{8e
=4
4a
8b
4ccn
8a
=5
4ee
8ee
4ee}
{8e
=6
4a
8b
4ccn
8a
=7
4ee
8ee
4.ee}
=8
{4ee
8ccn
4.ccn
=9
4ee
8b
4b}
{8b
=10
4.e
4.g#
=11
4.a
4r}
{8b
=12
4.e
4.g#
=13
4.a
4r}
==
!!!AGN: Liebes - Lied; +++ Phrasen geaendert (2.7.89)
!!!ONB: ESAC (Essen Associative Code) Database: ZUCCAL
!!!AMT: compound duple
!!!AIN: vox
!!!EED: Helmut Schaffrath
!!!EEV: 1.0
*-
